svg/weather/moon_cloudy_line.svg

<?xml version="1.0" encoding="UTF-8"?>
<svg width="24px" height="24px" viewBox="0 0 24 24" version="1.1" xmlns="http://www.w3.org/2000/svg" xmlns:xlink="http://www.w3.org/1999/xlink">
    <title>moon_cloudy_line</title>
    <g id="页面-1" stroke="none" stroke-width="1" fill="none" fill-rule="evenodd">
        <g id="Weather" transform="translate(-480.000000, 0.000000)">
            <g id="moon_cloudy_line" transform="translate(480.000000, 0.000000)">
                 <path d="M24,0 L24,24 L0,24 L0,0 L24,0 Z M12.5934901,23.257841 L12.5819402,23.2595131 L12.5108777,23.2950439 L12.4918791,23.2987469 L12.4918791,23.2987469 L12.4767152,23.2950439 L12.4056548,23.2595131 C12.3958229,23.2563662 12.3870493,23.2590235 12.3821421,23.2649074 L12.3780323,23.275831 L12.360941,23.7031097 L12.3658947,23.7234994 L12.3769048,23.7357139 L12.4804777,23.8096931 L12.4953491,23.8136134 L12.4953491,23.8136134 L12.5071152,23.8096931 L12.6106902,23.7357139 L12.6232938,23.7196733 L12.6232938,23.7196733 L12.6266527,23.7031097 L12.609561,23.275831 C12.6075724,23.2657013 12.6010112,23.2592993 12.5934901,23.257841 L12.5934901,23.257841 Z M12.8583906,23.1452862 L12.8445485,23.1473072 L12.6598443,23.2396597 L12.6498822,23.2499052 L12.6498822,23.2499052 L12.6471943,23.2611114 L12.6650943,23.6906389 L12.6699349,23.7034178 L12.6699349,23.7034178 L12.678386,23.7104931 L12.8793402,23.8032389 C12.8914285,23.8068999 12.9022333,23.8029875 12.9078286,23.7952264 L12.9118235,23.7811639 L12.8776777,23.1665331 C12.8752882,23.1545897 12.8674102,23.1470016 12.8583906,23.1452862 L12.8583906,23.1452862 Z M12.1430473,23.1473072 C12.1332178,23.1423925 12.1221763,23.1452606 12.1156365,23.1525954 L12.1099173,23.1665331 L12.0757714,23.7811639 C12.0751323,23.7926639 12.0828099,23.8018602 12.0926481,23.8045676 L12.108256,23.8032389 L12.3092106,23.7104931 L12.3186497,23.7024347 L12.3186497,23.7024347 L12.3225043,23.6906389 L12.340401,23.2611114 L12.337245,23.2485176 L12.337245,23.2485176 L12.3277531,23.2396597 L12.1430473,23.1473072 Z" id="MingCute" fill-rule="nonzero"></path>
                <path d="M14.902223,4.67036233 L14.799,4.42095 C14.4642,3.67541 15.1051,2.87623 15.8938,3.01543 C19.364,3.6279 22,6.65636 22,10.3025 C22,11.7553 21.5814,13.1103 20.8582,14.2535 C20.951,14.654 21,15.0712 21,15.5 C21,18.4635122 18.6562522,20.8795407 15.7212095,20.9956329 L15.5,21 L6.5,21 C4.01472,21 2,18.9853 2,16.5 C2,14.5384 3.2545,12.8708 5.00531,12.2544 C5.00178,12.17 5,12.0852 5,12 C5,8.68629 7.68629,6 11,6 C12.5507,6 13.9634,6.58798 15.028,7.55306 C15.14,7.15549 15.1999,6.73608 15.1999,6.30268 C15.1999,5.72632 15.094398,5.17659265 14.902223,4.67036233 Z M11,8 C8.79086,8 7,9.79086 7,12 C7,12.1856667 7.01258222,12.3679111 7.03684296,12.5460519 L7.08188,12.8101 C7.20253,13.3974 6.7903,13.9494 6.20847,14.0167 C4.96556,14.1604 4,15.2182 4,16.5 C4,17.825472 5.03153766,18.9100378 6.33562452,18.9946823 L6.5,19 L15.5,19 C17.433,19 19,17.433 19,15.5 C19,13.6753 17.603,12.1758 15.8209,12.0144 C15.3767,11.9742 15.0099,11.6469 14.9217,11.2073 C14.5544,9.37778 12.937,8 11,8 Z M17.1568,5.54471 C17.1853,5.79358 17.1999,6.04652 17.1999,6.30268 C17.1999,7.43041 16.9171,8.49208 16.4185,9.42062 C16.5279,9.65015 16.6232,9.88771 16.7033,10.1322 C17.9107,10.4018 18.9683,11.068 19.7321,11.987 C19.906,11.457 20,10.8907 20,10.3025 C20,8.24572 18.8495,6.45639 17.1568,5.54471 Z" id="形状" fill="#09244B"></path>
            </g>
        </g>
    </g>
</svg>

<svg xmlns="http://www.w3.org/2000/svg" width="24" height="24"><g fill="none" fill-rule="evenodd"><path d="M24 0v24H0V0h24ZM12.593 23.258l-.011.002-.071.035-.02.004-.014-.004-.071-.035c-.01-.004-.019-.001-.024.005l-.004.01-.017.428.005.02.01.013.104.074.015.004.012-.004.104-.074.012-.016.004-.017-.017-.427c-.002-.01-.009-.017-.017-.018Zm.265-.113-.013.002-.185.093-.01.01-.003.011.018.43.005.012.008.007.201.093c.012.004.023 0 .029-.008l.004-.014-.034-.614c-.003-.012-.01-.02-.02-.022Zm-.715.002a.023.023 0 0 0-.027.006l-.006.014-.034.614c0 .012.007.02.017.024l.015-.002.201-.093.01-.008.004-.011.017-.43-.003-.012-.01-.01-.184-.092Z"/><path fill="#09244B" d="m14.902 4.67-.103-.249c-.335-.746.306-1.545 1.095-1.406a7.402 7.402 0 0 1 4.964 11.239 5.5 5.5 0 0 1-5.137 6.742L15.5 21h-9a4.5 4.5 0 0 1-1.495-8.746 6 6 0 0 1 10.023-4.701c.112-.398.172-.817.172-1.25 0-.577-.106-1.126-.298-1.633ZM11 8a4 4 0 0 0-3.963 4.546l.045.264a1.01 1.01 0 0 1-.874 1.207 2.5 2.5 0 0 0 .128 4.978L6.5 19h9a3.5 3.5 0 0 0 .32-6.986 1.01 1.01 0 0 1-.898-.807A4.002 4.002 0 0 0 11 8Zm6.157-2.455a6.571 6.571 0 0 1-.738 3.876c.109.23.204.467.284.711a5.5 5.5 0 0 1 3.03 1.855c.173-.53.267-1.096.267-1.684a5.4 5.4 0 0 0-2.843-4.758Z"/></g></svg>
